;FLAVOR:Marlin
;TIME:12860
;Filament used: 7.7903m
;Layer height: 0.2
;MINX:103.548
;MINY:115.609
;MINZ:0.2
;MAXX:197.451
;MAXY:184.391
;MAXZ:27.2
;TARGET_MACHINE.NAME:Creality Ender-3 Max
;Generated with Cura_SteamEngine 5.5.0
M140 S85
M105
M190 S85
M104 S235
M105
M109 S235
M82 ;absolute extrusion mode
; Ender 3 Max Custom Start G-code
G92 E0 ; Reset Extruder
G28 ; Home all axes
G1 Z2.0 F3000 ; Move Z Axis up little to prevent scratching of Heat Bed
G1 X0.1 Y20 Z0.3 F5000.0 ; Move to start position
G1 X0.1 Y200.0 Z0.3 F1500.0 E15 ; Draw the first line
G1 X0.4 Y200.0 Z0.3 F5000.0 ; Move to side a little
G1 X0.4 Y20 Z0.3 F1500.0 E30 ; Draw the second line
G92 E0 ; Reset Extruder
G1 Z2.0 F3000 ; Move Z Axis up little to prevent scratching of Heat Bed
G1 X5 Y20 Z0.3 F5000.0 ; Move over to prevent blob squish
G92 E0
G92 E0
G1 F1500 E-6.5
;LAYER_COUNT:136
;LAYER:0
M107
G0 F6000 X107.004 Y118.623 Z0.2
;TYPE:SKIRT
G1 F1500 E0
G1 F1200 X107.74 Y117.987 E0.03235
G1 X108.471 Y117.456 E0.0624
G1 X109.368 Y116.921 E0.09714
G1 X110.246 Y116.5 E0.12953
G1 X111.159 Y116.158 E0.16195
G1 X112.096 Y115.899 E0.19429
G1 X113.063 Y115.721 E0.22699
G1 X114.203 Y115.625 E0.26504
G1 X114.878 Y115.61 E0.2875
G1 X184.757 Y115.609 E2.61168
G1 X185.639 Y115.622 E2.64102
G1 X186.611 Y115.681 E2.67341
G1 X187.574 Y115.827 E2.70581
G1 X188.522 Y116.058 E2.73826
G1 X189.378 Y116.346 E2.7683
G1 X190.334 Y116.765 E2.80301
G1 X191.187 Y117.236 E2.83542
G1 X191.994 Y117.781 E2.86781
G1 X192.749 Y118.394 E2.90016
G1 X193.448 Y119.072 E2.93255
G1 X194.085 Y119.81 E2.96497
G1 X194.646 Y120.588 E2.99687
G1 X194.952 Y121.082 E3.0162
G1 X195.316 Y121.71 E3.04034
G1 X195.881 Y122.719 E3.07881
G1 X196.313 Y123.582 E3.1109
G1 X196.457 Y123.906 E3.1227
G1 X196.812 Y124.813 E3.15509
G1 X197.084 Y125.743 E3.18732
G1 X197.259 Y126.586 E3.21596
G1 X197.398 Y127.604 E3.25013
G1 X197.442 Y128.524 E3.28076
G1 X197.451 Y130.071 E3.33222
G1 X197.437 Y131.012 E3.36352
G1 X197.385 Y131.905 E3.39327
G1 X197.185 Y133.772 E3.45572
G1 X196.968 Y136.269 E3.53909
G1 X196.826 Y138.754 E3.62187
G1 X196.752 Y141.316 E3.70712
G1 X196.749 Y143.83 E3.79074
G1 X196.819 Y146.37 E3.87525
G1 X196.924 Y148.577 E3.94874
G1 X196.936 Y149.084 E3.9656
G1 X196.935 Y151.211 E4.03635
G1 X196.915 Y152.271 E4.07161
G1 X196.847 Y153.728 E4.12012
G1 X196.77 Y156.336 E4.2069
G1 X196.768 Y158.846 E4.29039
G1 X196.837 Y161.35 E4.3737
G1 X196.977 Y163.846 E4.45685
G1 X197.189 Y166.369 E4.54106
G1 X197.324 Y167.586 E4.58179
G1 X197.393 Y168.315 E4.60614
G1 X197.442 Y169.272 E4.63801
G1 X197.451 Y170.763 E4.68761
G1 X197.437 Y171.748 E4.72037
G1 X197.377 Y172.721 E4.75279
G1 X197.23 Y173.682 E4.78513
G1 X197.008 Y174.597 E4.81644
G1 X196.651 Y175.638 E4.85305
G1 X196.498 Y176.017 E4.86664
G1 X196.101 Y176.891 E4.89857
G1 X195.836 Y177.38 E4.91707
G1 X194.971 Y178.882 E4.97472
G1 X194.436 Y179.717 E5.0077
G1 X193.842 Y180.487 E5.04005
G1 X193.231 Y181.152 E5.07008
G1 X192.457 Y181.855 E5.10486
G1 X191.68 Y182.443 E5.13727
G1 X190.916 Y182.924 E5.1673
G1 X189.986 Y183.399 E5.20203
G1 X189.081 Y183.762 E5.23446
G1 X188.183 Y184.034 E5.26567
G1 X187.222 Y184.235 E5.29832
G1 X185.795 Y184.375 E5.34601
G1 X185.138 Y184.39 E5.36787
G1 X115.244 Y184.391 E7.69255
G1 X114.364 Y184.378 E7.72183
G1 X113.392 Y184.319 E7.75421
G1 X112.429 Y184.173 E7.78661
G1 X111.482 Y183.942 E7.81903
G1 X110.594 Y183.642 E7.85021
G1 X109.702 Y183.252 E7.88259
G1 X108.819 Y182.765 E7.91612
G1 X108.068 Y182.263 E7.94617
G1 X107.253 Y181.605 E7.98101
G1 X106.555 Y180.927 E8.01337
G1 X105.919 Y180.19 E8.04575
G1 X105.349 Y179.4 E8.07815
G1 X104.887 Y178.624 E8.10819
G1 X104.433 Y177.682 E8.14297
G1 X104.104 Y176.804 E8.17416
G1 X103.835 Y175.831 E8.20773
G1 X103.658 Y174.864 E8.24043
G1 X103.562 Y173.706 E8.27908
G1 X103.548 Y173.057 E8.30067
G1 X103.549 Y127.141 E9.82784
G1 X103.56 Y126.436 E9.85129
G1 X103.618 Y125.463 E9.88371
G1 X103.764 Y124.5 E9.91611
G1 X103.984 Y123.588 E9.94731
G1 X104.306 Y122.631 E9.98089
G1 X104.698 Y121.741 E10.01324
G1 X105.15 Y120.918 E10.04447
G1 X105.712 Y120.08 E10.07803
G1 X106.278 Y119.376 E10.10807
G1 X107.004 Y118.623 E10.14286
G0 F6000 X107.266 Y118.925
G1 F1200 X107.975 Y118.311 E10.17406
G1 X108.706 Y117.78 E10.20411
G1 X109.542 Y117.281 E10.23649
G1 X110.387 Y116.874 E10.26768
G1 X111.266 Y116.543 E10.29892
G1 X112.169 Y116.292 E10.3301
G1 X113.097 Y116.12 E10.36149
G1 X114.237 Y116.024 E10.39954
G1 X114.878 Y116.01 E10.42086
G1 X184.751 Y116.009 E12.74485
G1 X185.615 Y116.021 E12.77359
G1 X186.552 Y116.077 E12.80481
G1 X187.48 Y116.216 E12.83602
G1 X188.394 Y116.437 E12.86729
G1 X189.25 Y116.725 E12.89733
G1 X190.141 Y117.115 E12.92968
G1 X190.964 Y117.568 E12.96093
G1 X191.742 Y118.092 E12.99213
G1 X192.471 Y118.682 E13.02332
G1 X193.146 Y119.334 E13.05453
G1 X193.761 Y120.044 E13.08577
G1 X194.306 Y120.799 E13.11674
G1 X194.606 Y121.283 E13.13568
G1 X194.967 Y121.905 E13.1596
G1 X195.523 Y122.898 E13.19746
G1 X195.948 Y123.745 E13.22897
G1 X196.085 Y124.052 E13.24016
G1 X196.428 Y124.926 E13.27138
G1 X196.692 Y125.824 E13.30252
G1 X196.867 Y126.667 E13.33115
G1 X196.998 Y127.623 E13.36325
G1 X197.042 Y128.526 E13.39331
G1 X197.051 Y130.065 E13.4445
G1 X197.038 Y130.989 E13.47524
G1 X196.987 Y131.862 E13.50432
G1 X196.787 Y133.729 E13.56678
G1 X196.57 Y136.234 E13.6504
G1 X196.426 Y138.742 E13.73396
G1 X196.352 Y141.304 E13.81921
G1 X196.349 Y143.83 E13.90322
G1 X196.419 Y146.389 E13.98837
G1 X196.524 Y148.587 E14.06156
G1 X196.536 Y149.084 E14.07809
G1 X196.535 Y151.203 E14.14857
G1 X196.515 Y152.252 E14.18346
G1 X196.447 Y153.709 E14.23198
G1 X196.37 Y156.324 E14.31899
G1 X196.368 Y158.846 E14.40287
G1 X196.437 Y161.361 E14.48655
G1 X196.578 Y163.88 E14.57047
G1 X196.791 Y166.413 E14.65501
G1 X196.926 Y167.624 E14.69554
G1 X196.994 Y168.335 E14.7193
G1 X197.042 Y169.274 E14.75057
G1 X197.051 Y170.758 E14.79993
G1 X197.038 Y171.724 E14.83206
G1 X196.981 Y172.661 E14.86328
G1 X196.841 Y173.588 E14.89446
G1 X196.619 Y174.503 E14.92578
G1 X196.28 Y175.489 E14.96046
G1 X196.134 Y175.852 E14.97347
G1 X195.749 Y176.7 E15.00445
G1 X195.489 Y177.18 E15.0226
G1 X194.624 Y178.682 E15.08025
G1 X194.119 Y179.473 E15.11146
G1 X193.547 Y180.216 E15.14265
G1 X192.936 Y180.881 E15.17269
G1 X192.215 Y181.536 E15.20509
G1 X191.467 Y182.104 E15.23633
G1 X190.703 Y182.585 E15.26635
G1 X189.836 Y183.028 E15.29874
G1 X188.965 Y183.379 E15.32997
G1 X188.101 Y183.642 E15.36001
G1 X187.14 Y183.843 E15.39266
G1 X185.786 Y183.975 E15.43791
G1 X185.138 Y183.99 E15.45947
G1 X115.25 Y183.991 E17.78395
G1 X114.388 Y183.979 E17.81263
G1 X113.451 Y183.923 E17.84385
G1 X112.523 Y183.784 E17.87506
G1 X111.61 Y183.563 E17.9063
G1 X110.754 Y183.275 E17.93634
G1 X109.862 Y182.885 E17.96872
G1 X109.041 Y182.432 E17.99991
G1 X108.29 Y181.93 E18.02995
G1 X107.531 Y181.318 E18.06238
G1 X106.857 Y180.665 E18.09359
G1 X106.243 Y179.956 E18.12479
G1 X105.693 Y179.195 E18.15602
G1 X105.231 Y178.419 E18.18605
G1 X104.808 Y177.542 E18.21844
G1 X104.479 Y176.664 E18.24962
G1 X104.228 Y175.759 E18.28086
G1 X104.057 Y174.831 E18.31225
G1 X103.961 Y173.673 E18.35089
G1 X103.948 Y173.057 E18.37139
G1 X103.949 Y127.147 E19.89836
G1 X103.959 Y126.459 E19.92124
G1 X104.014 Y125.522 E19.95246
G1 X104.153 Y124.594 E19.98367
G1 X104.373 Y123.682 E20.01488
G1 X104.672 Y122.792 E20.0461
G1 X105.049 Y121.933 E20.0773
G1 X105.483 Y121.14 E20.10737
G1 X106.024 Y120.331 E20.13974
G1 X106.59 Y119.627 E20.16978
G1 X107.266 Y118.925 E20.2022
G0 F6000 X107.528 Y119.227
G1 F1200 X108.21 Y118.635 E20.23224
G1 X108.941 Y118.104 E20.26229
G1 X109.716 Y117.641 E20.29231
G1 X110.529 Y117.248 E20.32235
G1 X111.374 Y116.928 E20.3524
G1 X112.243 Y116.685 E20.38241
G1 X113.131 Y116.519 E20.41246
G1 X114.271 Y116.423 E20.45051
G1 X114.878 Y116.41 E20.4707
G1 X184.746 Y116.409 E22.79452
G1 X185.592 Y116.42 E22.82266
G1 X186.494 Y116.473 E22.85271
G1 X187.387 Y116.605 E22.88274
G1 X188.266 Y116.816 E22.9128
G1 X189.122 Y117.104 E22.94284
G1 X189.949 Y117.466 E22.97287
G1 X190.741 Y117.9 E23.00291
G1 X191.491 Y118.403 E23.03294
G1 X192.194 Y118.97 E23.06298
G1 X192.844 Y119.596 E23.093
G1 X193.437 Y120.278 E23.12306
G1 X193.966 Y121.01 E23.15309
G1 X194.26 Y121.484 E23.17165
G1 X194.618 Y122.101 E23.19537
G1 X195.166 Y123.078 E23.23263
G1 X195.583 Y123.908 E23.26352
G1 X195.713 Y124.199 E23.27412
G1 X196.044 Y125.039 E23.30415
G1 X196.3 Y125.905 E23.33419
G1 X196.475 Y126.748 E23.36283
G1 X196.598 Y127.643 E23.39287
G1 X196.642 Y128.528 E23.42234
G1 X196.651 Y130.06 E23.4733
G1 X196.639 Y130.966 E23.50344
G1 X196.589 Y131.819 E23.53186
G1 X196.389 Y133.686 E23.59431
G1 X196.172 Y136.2 E23.67823
G1 X196.026 Y138.73 E23.76252
G1 X195.952 Y141.292 E23.84777
G1 X195.949 Y143.83 E23.93219
G1 X196.019 Y146.408 E24.01796
G1 X196.124 Y148.597 E24.09085
G1 X196.136 Y149.084 E24.10705
G1 X196.135 Y151.195 E24.17727
G1 X196.115 Y152.233 E24.2118
G1 X196.047 Y153.69 E24.26031
G1 X195.97 Y156.312 E24.34756
G1 X195.968 Y158.846 E24.43184
G1 X196.037 Y161.372 E24.51588
G1 X196.179 Y163.914 E24.60056
G1 X196.393 Y166.458 E24.68547
G1 X196.528 Y167.663 E24.7258
G1 X196.595 Y168.355 E24.74893
G1 X196.642 Y169.276 E24.7796
G1 X196.651 Y170.753 E24.82873
G1 X196.639 Y171.7 E24.86023
G1 X196.585 Y172.602 E24.89028
G1 X196.452 Y173.495 E24.92031
G1 X196.241 Y174.373 E24.95034
G1 X195.909 Y175.34 E24.98435
G1 X195.77 Y175.687 E24.99678
G1 X195.397 Y176.51 E25.02683
G1 X195.142 Y176.981 E25.04465
G1 X194.287 Y178.467 E25.10167
G1 X193.802 Y179.229 E25.13171
G1 X193.252 Y179.945 E25.16174
G1 X192.641 Y180.61 E25.19178
G1 X191.973 Y181.218 E25.22182
G1 X191.254 Y181.765 E25.25187
G1 X190.49 Y182.246 E25.2819
G1 X189.686 Y182.657 E25.31193
G1 X188.849 Y182.996 E25.34196
G1 X187.985 Y183.259 E25.372
G1 X187.101 Y183.445 E25.40205
G1 X185.777 Y183.575 E25.4463
G1 X185.138 Y183.59 E25.46756
G1 X115.255 Y183.591 E27.79187
G1 X114.411 Y183.58 E27.81995
G1 X113.509 Y183.527 E27.85
G1 X112.616 Y183.395 E27.88002
G1 X111.738 Y183.184 E27.91006
G1 X110.882 Y182.896 E27.9401
G1 X110.055 Y182.534 E27.97012
G1 X109.263 Y182.099 E28.00018
G1 X108.512 Y181.597 E28.03022
G1 X107.809 Y181.03 E28.06026
G1 X107.159 Y180.403 E28.0903
G1 X106.567 Y179.721 E28.12034
G1 X106.037 Y178.99 E28.15037
G1 X105.575 Y178.214 E28.1804
G1 X105.182 Y177.401 E28.21044
G1 X104.864 Y176.556 E28.24047
G1 X104.621 Y175.686 E28.27051
G1 X104.456 Y174.798 E28.30055
G1 X104.361 Y173.664 E28.3384
G1 X104.348 Y173.057 E28.35859
G1 X104.349 Y127.152 E29.8854
G1 X104.358 Y126.482 E29.90769
G1 X104.41 Y125.58 E29.93774
G1 X104.542 Y124.687 E29.96776
G1 X104.752 Y123.809 E29.99779
G1 X105.039 Y122.952 E30.02785
G1 X105.4 Y122.125 E30.05786
G1 X105.834 Y121.332 E30.08793
G1 X106.336 Y120.582 E30.11794
G1 X106.902 Y119.878 E30.14799
G1 X107.528 Y119.227 E30.17803
G1 F1500 E23.67803
G0 F6000 X114.748 Y126.81
G1 F1500 E30.17803
G1 F1200 X185.253 Y126.809 E32.52303
G1 X185.253 Y126.933 E32.52716
G1 X185.282 Y127.037 E32.53075
G1 X185.589 Y127.544 E32.55046
G1 X185.604 Y127.565 E32.55132
G1 X185.927 Y127.969 E32.56852
G1 X185.932 Y127.975 E32.56878
G1 X186.115 Y128.186 E32.57807
G1 X186.223 Y128.432 E32.58701
G1 X186.252 Y128.604 E32.59281
G1 X186.25 Y130.763 E32.66462
G1 X186.132 Y131.053 E32.67503
G1 X185.835 Y131.423 E32.69081
G1 X185.821 Y131.442 E32.6916
G1 X185.624 Y131.757 E32.70396
G1 X185.613 Y131.778 E32.70474
G1 X185.464 Y132.096 E32.71642
G1 X185.454 Y132.122 E32.71735
G1 X185.331 Y132.521 E32.73124
G1 X185.324 Y132.552 E32.73229
G1 X185.273 Y132.919 E32.74462
G1 X185.271 Y132.936 E32.74519
G1 X185.252 Y133.281 E32.75668
G1 X185.252 Y133.292 E32.75705
G1 X185.258 Y144.765 E33.13864
G1 X185.258 Y144.773 E33.13891
G1 X185.351 Y146.968 E33.21198
G1 X185.352 Y146.983 E33.21248
G1 X185.45 Y147.832 E33.2409
G1 X185.452 Y147.845 E33.24134
G1 X185.546 Y148.364 E33.25888
G1 X185.548 Y148.372 E33.25916
G1 X185.644 Y148.798 E33.27368
G1 X185.708 Y148.905 E33.27783
G1 X185.736 Y148.915 E33.27882
G1 X185.736 Y151.594 E33.36792
G1 X185.727 Y151.597 E33.36824
G1 X185.65 Y151.716 E33.37295
G1 X185.447 Y152.658 E33.405
G1 X185.446 Y152.668 E33.40534
G1 X185.375 Y153.108 E33.42016
G1 X185.373 Y153.12 E33.42056
G1 X185.33 Y153.553 E33.43504
G1 X185.329 Y153.564 E33.4354
G1 X185.275 Y154.745 E33.47472
G1 X185.275 Y154.752 E33.47496
G1 X185.252 Y157.111 E33.55342
G1 X185.252 Y166.698 E33.87229
G1 X185.263 Y166.964 E33.88114
G1 X185.264 Y166.98 E33.88167
G1 X185.305 Y167.321 E33.8931
G1 X185.309 Y167.342 E33.89381
G1 X185.391 Y167.698 E33.90596
G1 X185.399 Y167.723 E33.90683
G1 X185.512 Y168.024 E33.91753
G1 X185.522 Y168.047 E33.91836
G1 X185.657 Y168.305 E33.92805
G1 X185.668 Y168.323 E33.92875
G1 X185.874 Y168.63 E33.94104
G1 X185.884 Y168.644 E33.94162
G1 X186.114 Y168.933 E33.9539
G1 X186.223 Y169.183 E33.96297
G1 X186.252 Y169.354 E33.96874
G1 X186.25 Y171.513 E34.04055
G1 X186.132 Y171.804 E34.05099
G1 X186.003 Y171.964 E34.05783
G1 X185.783 Y172.21 E34.06881
G1 X185.774 Y172.221 E34.06928
G1 X185.583 Y172.468 E34.07966
G1 X185.57 Y172.486 E34.0804
G1 X185.281 Y172.959 E34.09884
G1 X185.252 Y173.063 E34.10243
G1 X185.252 Y173.19 E34.10665
G1 X114.748 Y173.191 E36.45163
G1 X114.748 Y126.81 E37.99426
G0 F6000 X115.148 Y127.21
G1 F1200 X184.93 Y127.209 E40.31522
G1 X184.94 Y127.244 E40.31643
G1 X185.247 Y127.751 E40.33615
G1 X185.291 Y127.815 E40.33873
G1 X185.614 Y128.219 E40.35593
G1 X185.63 Y128.237 E40.35673
G1 X185.772 Y128.4 E40.36392
G1 X185.836 Y128.548 E40.36929
G1 X185.852 Y128.641 E40.37243
G1 X185.85 Y130.683 E40.44034
G1 X185.783 Y130.848 E40.44627
G1 X185.523 Y131.172 E40.46008
G1 X185.482 Y131.23 E40.46245
G1 X185.285 Y131.545 E40.4748
G1 X185.251 Y131.608 E40.47718
G1 X185.102 Y131.926 E40.48886
G1 X185.072 Y132.004 E40.49164
G1 X184.949 Y132.403 E40.50553
G1 X184.928 Y132.497 E40.50873
G1 X184.877 Y132.864 E40.52106
G1 X184.872 Y132.914 E40.52273
G1 X184.853 Y133.259 E40.53422
G1 X184.852 Y133.292 E40.53532
G1 X184.858 Y144.765 E40.91691
G1 X184.859 Y144.79 E40.91775
G1 X184.952 Y146.985 E40.99082
G1 X184.955 Y147.029 E40.99228
G1 X185.053 Y147.878 E41.02071
G1 X185.059 Y147.916 E41.02199
G1 X185.153 Y148.435 E41.03953
G1 X185.158 Y148.46 E41.04038
G1 X185.254 Y148.886 E41.0549
G1 X185.336 Y149.077 E41.06182
G1 X185.336 Y151.453 E41.14084
G1 X185.312 Y151.484 E41.14215
G1 X185.259 Y151.632 E41.14738
G1 X185.056 Y152.574 E41.17943
G1 X185.051 Y152.604 E41.18044
G1 X184.98 Y153.044 E41.19526
G1 X184.975 Y153.081 E41.1965
G1 X184.932 Y153.514 E41.21098
G1 X184.93 Y153.546 E41.21204
G1 X184.876 Y154.727 E41.25136
G1 X184.875 Y154.748 E41.25206
G1 X184.852 Y157.107 E41.33053
G1 X184.852 Y166.69 E41.64926
G1 X184.853 Y166.715 E41.65009
G1 X184.864 Y166.981 E41.65895
G1 X184.867 Y167.028 E41.66051
G1 X184.908 Y167.369 E41.67194
G1 X184.919 Y167.432 E41.67406
G1 X185.001 Y167.788 E41.68621
G1 X185.024 Y167.864 E41.68885
G1 X185.137 Y168.165 E41.69955
G1 X185.167 Y168.232 E41.70199
G1 X185.302 Y168.49 E41.71167
G1 X185.336 Y168.546 E41.71385
G1 X185.542 Y168.853 E41.72615
G1 X185.571 Y168.893 E41.72779
G1 X185.767 Y169.139 E41.73825
G1 X185.836 Y169.297 E41.74399
G1 X185.852 Y169.391 E41.74716
G1 X185.85 Y171.435 E41.81514
G1 X185.784 Y171.598 E41.82099
G1 X185.693 Y171.711 E41.82582
G1 X185.485 Y171.943 E41.83618
G1 X185.457 Y171.976 E41.83762
G1 X185.266 Y172.223 E41.84801
G1 X185.229 Y172.277 E41.85018
G1 X184.94 Y172.75 E41.86862
G1 X184.929 Y172.79 E41.87
G1 X115.148 Y172.791 E44.19093
G1 X115.148 Y127.21 E45.70696
G0 F6000 X115.548 Y127.61
G1 F1200 X184.694 Y127.609 E48.00676
G1 X184.905 Y127.958 E48.02033
G1 X184.979 Y128.064 E48.02462
G1 X185.302 Y128.468 E48.04183
G1 X185.328 Y128.499 E48.04317
G1 X185.43 Y128.617 E48.04836
G1 X185.451 Y128.663 E48.05004
G1 X185.452 Y128.671 E48.05031
G1 X185.45 Y130.605 E48.11464
G1 X185.434 Y130.645 E48.11607
G1 X185.211 Y130.922 E48.1279
G1 X185.143 Y131.018 E48.13181
G1 X184.946 Y131.333 E48.14417
G1 X184.888 Y131.439 E48.14819
G1 X184.739 Y131.757 E48.15987
G1 X184.689 Y131.886 E48.16447
G1 X184.566 Y132.285 E48.17836
G1 X184.532 Y132.442 E48.1837
G1 X184.481 Y132.809 E48.19602
