;FLAVOR:Marlin
;TIME:2894
;Filament used: 2.15862m
;Layer height: 0.2
;MINX:104.739
;MINY:117.197
;MINZ:0.2
;MAXX:196.261
;MAXY:182.801
;MAXZ:1.8
;TARGET_MACHINE.NAME:Creality Ender-3 Max
;Generated with Cura_SteamEngine 5.5.0
M140 S85
M105
M190 S85
M104 S235
M105
M109 S235
M82 ;absolute extrusion mode
; Ender 3 Max Custom Start G-code
G92 E0 ; Reset Extruder
G28 ; Home all axes
G1 Z2.0 F3000 ; Move Z Axis up little to prevent scratching of Heat Bed
G1 X0.1 Y20 Z0.3 F5000.0 ; Move to start position
G1 X0.1 Y200.0 Z0.3 F1500.0 E15 ; Draw the first line
G1 X0.4 Y200.0 Z0.3 F5000.0 ; Move to side a little
G1 X0.4 Y20 Z0.3 F1500.0 E30 ; Draw the second line
G92 E0 ; Reset Extruder
G1 Z2.0 F3000 ; Move Z Axis up little to prevent scratching of Heat Bed
G1 X5 Y20 Z0.3 F5000.0 ; Move over to prevent blob squish
G92 E0
G92 E0
G1 F1500 E-6.5
;LAYER_COUNT:9
;LAYER:0
M107
G0 F6000 X108.191 Y121.086 Z0.2
;TYPE:SKIRT
G1 F1500 E0
G1 F1200 X108.927 Y120.449 E0.03237
G1 X109.658 Y119.919 E0.06241
G1 X110.556 Y119.383 E0.09719
G1 X111.434 Y118.962 E0.12958
G1 X112.354 Y118.617 E0.16226
G1 X114.862 Y117.803 E0.24996
G1 X115.525 Y117.611 E0.27291
G1 X115.87 Y117.524 E0.28475
G1 X116.754 Y117.341 E0.31477
G1 X117.792 Y117.22 E0.34953
G1 X118.771 Y117.197 E0.3821
G1 X119.846 Y117.272 E0.41794
G1 X121.094 Y117.42 E0.45974
G1 X123.694 Y117.696 E0.5467
G1 X126.199 Y117.89 E0.63027
G1 X128.744 Y118.015 E0.71502
G1 X131.91 Y118.071 E0.82034
G1 X183.004 Y118.071 E2.51973
G1 X184.74 Y118.063 E2.57747
G1 X185.45 Y118.075 E2.60109
G1 X186.424 Y118.134 E2.63354
G1 X187.387 Y118.281 E2.66594
G1 X188.332 Y118.513 E2.69831
G1 X189.254 Y118.827 E2.7307
G1 X190.144 Y119.221 E2.76308
G1 X190.997 Y119.692 E2.79548
G1 X191.804 Y120.237 E2.82787
G1 X192.533 Y120.827 E2.85907
G1 X193.258 Y121.529 E2.89263
G1 X193.872 Y122.239 E2.92385
G1 X194.462 Y123.058 E2.95742
G1 X194.959 Y123.897 E2.98986
G1 X195.35 Y124.711 E3.01989
G1 X195.718 Y125.688 E3.05462
G1 X195.968 Y126.592 E3.08581
G1 X196.152 Y127.594 E3.1197
G1 X196.247 Y128.743 E3.15804
G1 X196.261 Y129.392 E3.17963
G1 X196.26 Y170.321 E4.54094
G1 X196.249 Y171.084 E4.56632
G1 X196.192 Y172.057 E4.59874
G1 X196.047 Y173.02 E4.63113
G1 X195.818 Y173.966 E4.6635
G1 X195.507 Y174.89 E4.69592
G1 X195.115 Y175.781 E4.7283
G1 X194.647 Y176.633 E4.76063
G1 X194.125 Y177.414 E4.79188
G1 X193.492 Y178.199 E4.82542
G1 X192.867 Y178.85 E4.85543
G1 X192.078 Y179.538 E4.89025
G1 X191.318 Y180.088 E4.92145
G1 X190.451 Y180.605 E4.95503
G1 X189.573 Y181.027 E4.98743
G1 X188.662 Y181.369 E5.01979
G1 X187.723 Y181.63 E5.05221
G1 X186.757 Y181.808 E5.08488
G1 X185.607 Y181.906 E5.12327
G1 X184.915 Y181.92 E5.14629
G1 X183.256 Y181.912 E5.20147
G1 X131.978 Y181.912 E6.90698
G1 X129.394 Y181.949 E6.99293
G1 X126.826 Y182.058 E7.07842
G1 X124.36 Y182.233 E7.16065
G1 X121.831 Y182.484 E7.24517
G1 X119.865 Y182.727 E7.31106
G1 X118.893 Y182.801 E7.34348
G1 X117.92 Y182.788 E7.37585
G1 X116.939 Y182.688 E7.40865
G1 X115.692 Y182.431 E7.45099
G1 X114.724 Y182.157 E7.48445
G1 X113.705 Y181.829 E7.52006
G1 X112.2 Y181.315 E7.57295
G1 X111.292 Y180.96 E7.60538
G1 X110.421 Y180.526 E7.63775
G1 X109.59 Y180.018 E7.67014
G1 X108.808 Y179.438 E7.70252
G1 X108.106 Y178.815 E7.73374
G1 X107.413 Y178.08 E7.76734
G1 X106.811 Y177.315 E7.79972
G1 X106.279 Y176.499 E7.83212
G1 X105.821 Y175.639 E7.86452
G1 X105.442 Y174.743 E7.89688
G1 X105.142 Y173.815 E7.92932
G1 X104.927 Y172.867 E7.96165
G1 X104.796 Y171.912 E7.99371
G1 X104.754 Y171.234 E8.01631
G1 X104.739 Y170.577 E8.03816
G1 X104.74 Y129.625 E9.40023
G1 X104.751 Y128.9 E9.42435
G1 X104.809 Y127.927 E9.45677
G1 X104.954 Y126.964 E9.48916
G1 X105.174 Y126.051 E9.52039
G1 X105.495 Y125.095 E9.55394
G1 X105.888 Y124.204 E9.58632
G1 X106.339 Y123.382 E9.61751
G1 X106.9 Y122.543 E9.65108
G1 X107.466 Y121.839 E9.68112
G1 X108.191 Y121.086 E9.71589
G0 F6000 X108.453 Y121.388
G1 F1200 X109.162 Y120.773 E9.74711
G1 X109.893 Y120.243 E9.77714
G1 X110.729 Y119.743 E9.80954
G1 X111.575 Y119.336 E9.84076
G1 X112.477 Y118.997 E9.87281
G1 X114.973 Y118.187 E9.96009
G1 X115.623 Y117.999 E9.98259
G1 X115.951 Y117.916 E9.99385
G1 X116.835 Y117.733 E10.02387
G1 X117.802 Y117.62 E10.05625
G1 X118.743 Y117.596 E10.08756
G1 X119.799 Y117.669 E10.12277
G1 X121.052 Y117.818 E10.16474
G1 X123.657 Y118.095 E10.25187
G1 X126.179 Y118.29 E10.336
G1 X128.724 Y118.415 E10.42075
G1 X131.903 Y118.471 E10.5265
G1 X183.006 Y118.471 E12.22619
G1 X184.734 Y118.463 E12.28367
G1 X185.426 Y118.474 E12.30669
G1 X186.364 Y118.53 E12.33794
G1 X187.292 Y118.67 E12.36915
G1 X188.204 Y118.892 E12.40037
G1 X189.093 Y119.193 E12.43159
G1 X189.951 Y119.571 E12.46277
G1 X190.774 Y120.024 E12.49402
G1 X191.552 Y120.548 E12.52522
G1 X192.281 Y121.138 E12.55641
G1 X192.955 Y121.791 E12.58762
G1 X193.569 Y122.501 E12.61884
G1 X194.118 Y123.262 E12.65005
G1 X194.598 Y124.07 E12.68131
G1 X194.989 Y124.884 E12.71135
G1 X195.332 Y125.795 E12.74372
G1 X195.582 Y126.699 E12.77492
G1 X195.753 Y127.627 E12.80631
G1 X195.848 Y128.776 E12.84465
G1 X195.861 Y129.392 E12.86514
G1 X195.86 Y170.316 E14.22628
G1 X195.85 Y171.061 E14.25106
G1 X195.796 Y171.998 E14.28228
G1 X195.658 Y172.927 E14.31352
G1 X195.439 Y173.839 E14.34471
G1 X195.141 Y174.729 E14.37593
G1 X194.764 Y175.589 E14.40716
G1 X194.314 Y176.411 E14.43833
G1 X193.792 Y177.192 E14.46957
G1 X193.203 Y177.922 E14.50077
G1 X192.578 Y178.573 E14.53079
G1 X191.843 Y179.214 E14.56322
G1 X191.083 Y179.764 E14.59443
G1 X190.277 Y180.245 E14.62565
G1 X189.432 Y180.653 E14.65685
G1 X188.554 Y180.984 E14.68806
G1 X187.65 Y181.237 E14.71929
G1 X186.723 Y181.409 E14.75064
G1 X185.573 Y181.507 E14.78903
G1 X184.917 Y181.52 E14.81085
G1 X183.258 Y181.512 E14.86603
G1 X131.972 Y181.512 E16.57181
G1 X129.377 Y181.549 E16.65813
G1 X126.809 Y181.658 E16.74362
G1 X124.325 Y181.834 E16.82645
G1 X121.786 Y182.086 E16.91131
G1 X119.834 Y182.328 E16.97673
G1 X118.898 Y182.401 E17.00796
G1 X117.96 Y182.39 E17.03916
G1 X117.02 Y182.296 E17.07058
G1 X115.773 Y182.039 E17.11292
G1 X114.846 Y181.776 E17.14497
G1 X113.834 Y181.451 E17.18032
G1 X112.345 Y180.942 E17.23266
G1 X111.47 Y180.602 E17.26389
G1 X110.629 Y180.185 E17.29511
G1 X109.828 Y179.696 E17.32632
G1 X109.073 Y179.138 E17.35755
G1 X108.397 Y178.54 E17.38756
G1 X107.727 Y177.832 E17.41998
G1 X107.146 Y177.096 E17.45117
G1 X106.632 Y176.31 E17.48241
G1 X106.189 Y175.482 E17.51364
G1 X105.822 Y174.619 E17.54483
G1 X105.532 Y173.726 E17.57606
G1 X105.323 Y172.812 E17.60725
G1 X105.195 Y171.887 E17.6383
G1 X105.154 Y171.225 E17.66036
G1 X105.139 Y170.577 E17.68192
G1 X105.14 Y129.631 E19.04379
G1 X105.15 Y128.923 E19.06734
G1 X105.205 Y127.986 E19.09856
G1 X105.343 Y127.058 E19.12977
G1 X105.563 Y126.145 E19.161
G1 X105.861 Y125.256 E19.19219
G1 X106.239 Y124.396 E19.22343
G1 X106.69 Y123.574 E19.25462
G1 X107.212 Y122.794 E19.28583
G1 X107.778 Y122.09 E19.31588
G1 X108.453 Y121.388 E19.34827
G0 F6000 X108.716 Y121.69
G1 F1200 X109.397 Y121.097 E19.3783
G1 X110.128 Y120.567 E19.40833
G1 X110.903 Y120.103 E19.43838
G1 X111.716 Y119.71 E19.46841
G1 X112.6 Y119.377 E19.49983
G1 X115.084 Y118.571 E19.58669
G1 X115.721 Y118.387 E19.60874
G1 X116.032 Y118.308 E19.61941
G1 X116.916 Y118.125 E19.64944
G1 X117.813 Y118.02 E19.67948
G1 X118.716 Y117.995 E19.70952
G1 X119.752 Y118.066 E19.74406
G1 X121.01 Y118.216 E19.7862
G1 X123.62 Y118.494 E19.8735
G1 X126.159 Y118.69 E19.9582
G1 X128.704 Y118.815 E20.04295
G1 X131.896 Y118.871 E20.14913
G1 X183.008 Y118.871 E21.84912
G1 X184.728 Y118.863 E21.90633
G1 X185.403 Y118.873 E21.92878
G1 X186.305 Y118.926 E21.95883
G1 X187.198 Y119.059 E21.98886
G1 X188.076 Y119.271 E22.01891
G1 X188.932 Y119.559 E22.04894
G1 X189.759 Y119.922 E22.07898
G1 X190.551 Y120.356 E22.10902
G1 X191.301 Y120.859 E22.13906
G1 X192.003 Y121.426 E22.16907
G1 X192.653 Y122.053 E22.19911
G1 X193.245 Y122.736 E22.22917
G1 X193.774 Y123.467 E22.25918
G1 X194.237 Y124.243 E22.28924
G1 X194.628 Y125.057 E22.31927
G1 X194.947 Y125.902 E22.34931
G1 X195.189 Y126.772 E22.37935
G1 X195.354 Y127.66 E22.40939
G1 X195.448 Y128.785 E22.44694
G1 X195.461 Y129.392 E22.46713
G1 X195.46 Y170.311 E23.8281
G1 X195.451 Y171.038 E23.85228
G1 X195.4 Y171.94 E23.88233
G1 X195.269 Y172.834 E23.91238
G1 X195.06 Y173.712 E23.9424
G1 X194.774 Y174.569 E23.97245
G1 X194.413 Y175.397 E24.00249
G1 X193.981 Y176.189 E24.0325
G1 X193.48 Y176.941 E24.06255
G1 X192.914 Y177.645 E24.0926
G1 X192.289 Y178.296 E24.12261
G1 X191.608 Y178.89 E24.15267
G1 X190.877 Y179.421 E24.18272
G1 X190.103 Y179.885 E24.21274
G1 X189.29 Y180.279 E24.24278
G1 X188.446 Y180.599 E24.27281
G1 X187.576 Y180.844 E24.30287
G1 X186.689 Y181.01 E24.33288
G1 X185.539 Y181.108 E24.37127
G1 X184.919 Y181.12 E24.39189
G1 X183.26 Y181.112 E24.44707
G1 X131.966 Y181.112 E26.15312
G1 X129.36 Y181.149 E26.2398
G1 X126.792 Y181.258 E26.32529
G1 X124.29 Y181.435 E26.40872
G1 X121.741 Y181.688 E26.49391
G1 X119.802 Y181.929 E26.5589
G1 X118.902 Y182.001 E26.58893
G1 X117.999 Y181.992 E26.61897
G1 X117.1 Y181.904 E26.64901
G1 X115.882 Y181.654 E26.69037
G1 X114.968 Y181.395 E26.72196
G1 X113.963 Y181.072 E26.75707
G1 X112.489 Y180.569 E26.80887
G1 X111.647 Y180.243 E26.83891
G1 X110.837 Y179.843 E26.86895
G1 X110.065 Y179.374 E26.899
G1 X109.338 Y178.838 E26.92904
G1 X108.662 Y178.24 E26.95906
G1 X108.041 Y177.584 E26.9891
G1 X107.48 Y176.876 E27.01914
G1 X106.984 Y176.121 E27.04919
G1 X106.557 Y175.325 E27.07923
G1 X106.202 Y174.495 E27.10926
G1 X105.922 Y173.636 E27.13931
G1 X105.719 Y172.757 E27.16931
G1 X105.594 Y171.862 E27.19937
G1 X105.554 Y171.216 E27.2209
G1 X105.539 Y170.577 E27.24216
G1 X105.54 Y129.636 E28.60386
G1 X105.549 Y128.946 E28.62681
G1 X105.601 Y128.044 E28.65686
G1 X105.732 Y127.151 E28.68688
G1 X105.942 Y126.272 E28.71694
G1 X106.228 Y125.416 E28.74696
G1 X106.59 Y124.588 E28.77701
G1 X107.023 Y123.796 E28.80704
G1 X107.524 Y123.045 E28.83706
G1 X108.09 Y122.341 E28.86711
G1 X108.716 Y121.69 E28.89715
G1 F1500 E22.39715
G0 F6000 X183.962 Y128.418
G0 X183.962 Y129.009
G0 X184.309 Y129.462
G1 F1500 E28.89715
G1 F1200 X184.428 Y129.423 E28.90131
G1 X184.509 Y129.262 E28.9073
G1 X185.061 Y129.262 E28.92566
G1 X185.061 Y170.721 E30.3046
G1 X184.509 Y170.721 E30.32296
G1 X184.47 Y170.602 E30.32712
G1 X184.309 Y170.521 E30.33312
G1 X184.661 Y170.521 E30.34482
G1 X184.78 Y170.482 E30.34899
G1 X184.861 Y170.321 E30.35498
G1 X184.861 Y129.662 E31.70731
G1 X184.822 Y129.543 E31.71147
G1 X184.661 Y129.462 E31.71747
G1 X184.309 Y129.462 E31.72917
G0 F6000 X184.309 Y129.862
;TYPE:SUPPORT-INTERFACE
G1 F1200 X184.461 Y129.862 E31.73423
G1 X184.461 Y170.121 E33.07325
G1 X184.309 Y170.121 E33.0783
G1 X184.309 Y129.862 E34.41732
G1 F1500 E27.91732
;MESH:ControllerLid.stl
G0 F6000 X182.509 Y129.872
G0 X118.484 Y171.071
G0 X118.542 Y171.196
;TYPE:WALL-INNER
G1 F1500 E34.41732
G1 F1200 X118.677 Y171.16 E34.42197
G1 X118.775 Y171.06 E34.42663
G1 X118.85 Y170.764 E34.43678
G1 X118.994 Y170.501 E34.44676
G1 X119.241 Y170.342 E34.45653
G1 X119.432 Y170.312 E34.46296
G1 X182.709 Y170.312 E36.56756
G1 X182.709 Y129.672 E37.91925
G1 X119.432 Y129.671 E40.02385
G1 X119.241 Y129.641 E40.03028
G1 X118.996 Y129.485 E40.03994
G1 X118.852 Y129.228 E40.04974
G1 X118.776 Y128.942 E40.05958
G1 X118.676 Y128.842 E40.06429
G1 X118.542 Y128.806 E40.0689
G1 X118.413 Y128.84 E40.07334
G1 X118.31 Y128.942 E40.07816
G1 X118.234 Y129.228 E40.088
G1 X118.089 Y129.485 E40.09782
G1 X117.844 Y129.641 E40.10748
G1 X117.653 Y129.671 E40.11391
G1 X116.339 Y129.671 E40.15761
G1 X116.339 Y170.312 E41.50934
G1 X117.653 Y170.312 E41.55304
G1 X117.844 Y170.342 E41.55947
G1 X118.092 Y170.501 E41.56927
G1 X118.236 Y170.764 E41.57924
G1 X118.31 Y171.06 E41.58939
G1 X118.408 Y171.16 E41.59405
G1 X118.542 Y171.196 E41.59866
G0 F6000 X118.543 Y171.61
;TYPE:WALL-OUTER
G1 F1200 X118.887 Y171.518 E41.61051
G1 X119.138 Y171.262 E41.62243
G1 X119.255 Y170.795 E41.63844
G1 X119.383 Y170.712 E41.64352
G1 X183.109 Y170.712 E43.76305
G1 X183.109 Y129.272 E45.14135
G1 X119.384 Y129.271 E47.26086
G1 X119.255 Y129.19 E47.26592
G1 X119.135 Y128.734 E47.2816
G1 X118.882 Y128.482 E47.29348
G1 X118.542 Y128.392 E47.30518
G1 X118.206 Y128.48 E47.31673
G1 X117.952 Y128.734 E47.32868
G1 X117.829 Y129.19 E47.34439
G1 X117.701 Y129.271 E47.34943
G1 X115.939 Y129.271 E47.40803
G1 X115.939 Y170.712 E48.78636
G1 X117.701 Y170.712 E48.84497
G1 X117.831 Y170.795 E48.8501
G1 X117.949 Y171.262 E48.86612
G1 X118.198 Y171.518 E48.878
G1 X118.543 Y171.61 E48.88987
G0 F6000 X118.627 Y171.055
G0 X118.543 Y170.583
;TYPE:SKIN
G1 F1200 X118.36 Y170.252 E48.90245
G1 X117.973 Y170.006 E48.9177
G1 X117.684 Y169.954 E48.92747
G1 X116.699 Y169.952 E48.96023
G1 X116.699 Y130.031 E50.28801
G1 X117.684 Y130.029 E50.32077
G1 X117.975 Y129.978 E50.3306
G1 X118.354 Y129.739 E50.3455
G1 X118.543 Y129.403 E50.35832
G1 X118.731 Y129.738 E50.3711
G1 X119.111 Y129.978 E50.38605
G1 X119.432 Y130.032 E50.39687
G1 X182.349 Y130.032 E52.4895
G1 X182.349 Y169.952 E53.81725
G1 X119.401 Y169.954 E55.91091
G1 X119.114 Y170.007 E55.92061
G1 X118.726 Y170.251 E55.93586
G1 X118.543 Y170.583 E55.94847
G0 F6000 X118.729 Y170.827
G0 X118.542 Y171.029
G0 X118.044 Y170.536
G0 X117.142 Y170.212
G0 X117.142 Y169.751
G1 F1200 X116.898 Y169.507 E55.95994
G0 F6000 X116.898 Y168.941
G1 F1200 X117.711 Y169.754 E55.99818
G0 F6000 X118.62 Y170.098
G1 F1200 X116.898 Y168.376 E56.07918
G0 F6000 X116.898 Y167.81
G1 F1200 X118.958 Y169.87 E56.17608
G0 F6000 X119.409 Y169.755
G1 F1200 X116.898 Y167.244 E56.29419
G0 F6000 X116.898 Y166.679
G1 F1200 X119.971 Y169.751 E56.43871
G0 F6000 X120.536 Y169.751
G1 F1200 X116.898 Y166.113 E56.60983
G0 F6000 X116.898 Y165.547
G1 F1200 X121.102 Y169.751 E56.80757
G0 F6000 X121.668 Y169.751
G1 F1200 X116.898 Y164.982 E57.03191
G0 F6000 X116.898 Y164.416
G1 F1200 X122.234 Y169.751 E57.28288
G0 F6000 X122.799 Y169.751
G1 F1200 X116.898 Y163.85 E57.56045
G0 F6000 X116.898 Y163.285
G1 F1200 X123.365 Y169.751 E57.86461
G0 F6000 X123.931 Y169.751
G1 F1200 X116.898 Y162.719 E58.1954
G0 F6000 X116.898 Y162.153
G1 F1200 X124.496 Y169.751 E58.55278
G0 F6000 X125.062 Y169.751
G1 F1200 X116.898 Y161.588 E58.93677
G0 F6000 X116.898 Y161.022
G1 F1200 X125.628 Y169.751 E59.34738
G0 F6000 X126.193 Y169.751
G1 F1200 X116.898 Y160.456 E59.78459
G0 F6000 X116.898 Y159.89
G1 F1200 X126.759 Y169.751 E60.24842
G0 F6000 X127.325 Y169.751
G1 F1200 X116.898 Y159.325 E60.73885
G0 F6000 X116.898 Y158.759
G1 F1200 X127.89 Y169.751 E61.25588
G0 F6000 X128.456 Y169.751
G1 F1200 X116.898 Y158.193 E61.79953
G0 F6000 X116.898 Y157.628
G1 F1200 X129.022 Y169.751 E62.36978
G0 F6000 X129.587 Y169.751
G1 F1200 X116.898 Y157.062 E62.96664
G0 F6000 X116.898 Y156.496
G1 F1200 X130.153 Y169.751 E63.59011
G0 F6000 X130.719 Y169.751
G1 F1200 X116.898 Y155.931 E64.24018
G0 F6000 X116.898 Y155.365
G1 F1200 X131.284 Y169.751 E64.91686
G0 F6000 X131.85 Y169.751
G1 F1200 X116.898 Y154.799 E65.62015
G0 F6000 X116.898 Y154.234
G1 F1200 X132.416 Y169.751 E66.35005
G0 F6000 X132.982 Y169.751
G1 F1200 X116.898 Y153.668 E67.10657
G0 F6000 X116.898 Y153.102
G1 F1200 X133.547 Y169.751 E67.88969
G0 F6000 X134.113 Y169.751
G1 F1200 X116.898 Y152.537 E68.6994
G0 F6000 X116.898 Y151.971
G1 F1200 X134.679 Y169.751 E69.53574
G0 F6000 X135.244 Y169.751
G1 F1200 X116.898 Y151.405 E70.39868
G0 F6000 X116.898 Y150.84
G1 F1200 X135.81 Y169.751 E71.28822
G0 F6000 X136.376 Y169.751
G1 F1200 X116.898 Y150.274 E72.20438
G0 F6000 X116.898 Y149.708
G1 F1200 X136.941 Y169.751 E73.14714
G0 F6000 X137.507 Y169.751
G1 F1200 X116.898 Y149.142 E74.11653
G0 F6000 X116.898 Y148.577
G1 F1200 X138.073 Y169.751 E75.11251
G0 F6000 X138.638 Y169.751
G1 F1200 X116.898 Y148.011 E76.1351
G0 F6000 X116.898 Y147.445
G1 F1200 X139.204 Y169.751 E77.1843
G0 F6000 X139.77 Y169.751
G1 F1200 X116.898 Y146.88 E78.26011
G0 F6000 X116.898 Y146.314
G1 F1200 X140.335 Y169.751 E79.36251
G0 F6000 X140.901 Y169.751
G1 F1200 X116.898 Y145.748 E80.49154
G0 F6000 X116.898 Y145.183
G1 F1200 X141.467 Y169.751 E81.64717
G0 F6000 X142.033 Y169.751
G1 F1200 X116.898 Y144.617 E82.82942
