;FLAVOR:Marlin
;TIME:10907
;Filament used: 7.19286m
;Layer height: 0.2
;MINX:105.072
;MINY:110.392
;MINZ:0.2
;MAXX:194.928
;MAXY:189.608
;MAXZ:12
;TARGET_MACHINE.NAME:Creality Ender-3 Max
;Generated with Cura_SteamEngine 5.5.0
M140 S85
M105
M190 S85
M104 S235
M105
M109 S235
M82 ;absolute extrusion mode
; Ender 3 Max Custom Start G-code
G92 E0 ; Reset Extruder
G28 ; Home all axes
G1 Z2.0 F3000 ; Move Z Axis up little to prevent scratching of Heat Bed
G1 X0.1 Y20 Z0.3 F5000.0 ; Move to start position
G1 X0.1 Y200.0 Z0.3 F1500.0 E15 ; Draw the first line
G1 X0.4 Y200.0 Z0.3 F5000.0 ; Move to side a little
G1 X0.4 Y20 Z0.3 F1500.0 E30 ; Draw the second line
G92 E0 ; Reset Extruder
G1 Z2.0 F3000 ; Move Z Axis up little to prevent scratching of Heat Bed
G1 X5 Y20 Z0.3 F5000.0 ; Move over to prevent blob squish
G92 E0
G92 E0
G1 F1500 E-6.5
;LAYER_COUNT:60
;LAYER:0
M107
G0 F6000 X108.539 Y113.395 Z0.2
;TYPE:SKIRT
G1 F1500 E0
G1 F1200 X109.249 Y112.781 E0.03122
G1 X110.067 Y112.191 E0.06477
G1 X110.874 Y111.712 E0.09598
G1 X111.752 Y111.29 E0.12838
G1 X112.697 Y110.935 E0.16195
G1 X113.601 Y110.685 E0.19315
G1 X114.603 Y110.501 E0.22703
G1 X115.753 Y110.406 E0.26541
G1 X116.402 Y110.392 E0.287
G1 X183.38 Y110.394 E2.5147
G1 X184.112 Y110.406 E2.53905
G1 X185.084 Y110.465 E2.57144
G1 X186.047 Y110.611 E2.60384
G1 X186.994 Y110.842 E2.63626
G1 X187.916 Y111.156 E2.66865
G1 X188.807 Y111.55 E2.70105
G1 X189.657 Y112.019 E2.73334
G1 X190.408 Y112.521 E2.76339
G1 X191.223 Y113.179 E2.79823
G1 X191.921 Y113.857 E2.83059
G1 X192.557 Y114.594 E2.86297
G1 X193.127 Y115.384 E2.89537
G1 X193.589 Y116.16 E2.92541
G1 X194.043 Y117.102 E2.96019
G1 X194.372 Y117.98 E2.99137
G1 X194.641 Y118.952 E3.02492
G1 X194.818 Y119.918 E3.05758
G1 X194.913 Y121.048 E3.0953
G1 X194.928 Y121.723 E3.11776
G1 X194.927 Y122.896 E3.15677
G1 X194.91 Y124.109 E3.19712
G1 X194.91 Y126.717 E3.28386
G1 X194.924 Y127.35 E3.30492
G1 X194.926 Y171.979 E4.78929
G1 X194.91 Y173.06 E4.82524
G1 X194.91 Y175.657 E4.91162
G1 X194.924 Y176.288 E4.93261
G1 X194.928 Y177.867 E4.98513
G1 X194.915 Y178.785 E5.01567
G1 X194.857 Y179.758 E5.04809
G1 X194.711 Y180.721 E5.08048
G1 X194.48 Y181.668 E5.1129
G1 X194.167 Y182.59 E5.14529
G1 X193.775 Y183.481 E5.17766
G1 X193.323 Y184.303 E5.20886
G1 X192.761 Y185.141 E5.24242
G1 X192.171 Y185.871 E5.27364
G1 X191.468 Y186.597 E5.30725
G1 X190.732 Y187.233 E5.33961
G1 X189.942 Y187.803 E5.37201
G1 X189.166 Y188.266 E5.40206
G1 X188.226 Y188.719 E5.43677
G1 X187.313 Y189.061 E5.4692
G1 X186.375 Y189.32 E5.50156
G1 X185.409 Y189.497 E5.53422
G1 X184.273 Y189.593 E5.57214
G1 X183.598 Y189.608 E5.5946
G1 X116.62 Y189.606 E7.8223
G1 X115.888 Y189.594 E7.84665
G1 X114.916 Y189.535 E7.87903
G1 X113.953 Y189.389 E7.91143
G1 X113.006 Y189.158 E7.94385
G1 X112.084 Y188.844 E7.97625
G1 X111.193 Y188.45 E8.00865
G1 X110.343 Y187.981 E8.04094
G1 X109.592 Y187.479 E8.07098
G1 X108.777 Y186.821 E8.10582
G1 X108.079 Y186.143 E8.13819
G1 X107.443 Y185.406 E8.17057
G1 X106.873 Y184.616 E8.20297
G1 X106.411 Y183.84 E8.233
G1 X105.957 Y182.898 E8.26778
G1 X105.628 Y182.02 E8.29897
G1 X105.359 Y181.047 E8.33255
G1 X105.182 Y180.08 E8.36524
G1 X105.086 Y178.915 E8.40412
G1 X105.072 Y178.265 E8.42575
G1 X105.073 Y177.027 E8.46692
G1 X105.09 Y175.877 E8.50517
G1 X105.09 Y173.268 E8.59195
G1 X105.074 Y172.394 E8.62102
G1 X105.075 Y128.023 E10.09681
G1 X105.09 Y126.951 E10.13247
G1 X105.09 Y124.34 E10.21931
G1 X105.074 Y123.495 E10.24742
G1 X105.073 Y121.918 E10.29987
G1 X105.085 Y121.204 E10.32362
G1 X105.144 Y120.23 E10.35608
G1 X105.291 Y119.269 E10.38841
G1 X105.522 Y118.322 E10.42083
G1 X105.823 Y117.434 E10.45202
G1 X106.229 Y116.509 E10.48562
G1 X106.664 Y115.717 E10.51567
G1 X107.246 Y114.85 E10.5504
G1 X107.837 Y114.12 E10.58164
G1 X108.539 Y113.395 E10.61521
G0 F6000 X108.801 Y113.698
G1 F1200 X109.511 Y113.084 E10.64643
G1 X110.272 Y112.535 E10.67764
G1 X111.047 Y112.073 E10.70765
G1 X111.925 Y111.651 E10.74005
G1 X112.804 Y111.321 E10.77128
G1 X113.708 Y111.071 E10.80247
G1 X114.636 Y110.9 E10.83386
G1 X115.786 Y110.805 E10.87224
G1 X116.402 Y110.792 E10.89273
G1 X183.374 Y110.794 E13.12023
G1 X184.088 Y110.805 E13.14398
G1 X185.025 Y110.861 E13.1752
G1 X185.953 Y111 E13.20641
G1 X186.866 Y111.221 E13.23765
G1 X187.755 Y111.522 E13.26887
G1 X188.614 Y111.9 E13.30008
G1 X189.435 Y112.352 E13.33125
G1 X190.186 Y112.854 E13.3613
G1 X190.945 Y113.466 E13.39373
G1 X191.619 Y114.119 E13.42494
G1 X192.233 Y114.828 E13.45613
G1 X192.783 Y115.589 E13.48736
G1 X193.245 Y116.365 E13.5174
G1 X193.668 Y117.242 E13.54979
G1 X193.997 Y118.12 E13.58097
G1 X194.248 Y119.025 E13.61221
G1 X194.419 Y119.952 E13.64356
G1 X194.514 Y121.082 E13.68128
G1 X194.528 Y121.723 E13.7026
G1 X194.527 Y122.89 E13.74142
G1 X194.51 Y124.103 E13.78177
G1 X194.51 Y126.717 E13.86871
G1 X194.524 Y127.35 E13.88977
G1 X194.526 Y171.973 E15.37393
G1 X194.51 Y173.054 E15.40989
G1 X194.51 Y175.657 E15.49647
G1 X194.524 Y176.289 E15.51749
G1 X194.528 Y177.862 E15.56981
G1 X194.516 Y178.762 E15.59975
G1 X194.461 Y179.699 E15.63097
G1 X194.322 Y180.627 E15.66218
G1 X194.101 Y181.54 E15.69342
G1 X193.801 Y182.429 E15.72463
G1 X193.424 Y183.288 E15.75583
G1 X192.972 Y184.11 E15.78703
G1 X192.449 Y184.89 E15.81826
G1 X191.883 Y185.593 E15.84828
G1 X191.206 Y186.295 E15.88072
G1 X190.498 Y186.909 E15.91189
G1 X189.737 Y187.459 E15.94312
G1 X188.961 Y187.922 E15.97317
G1 X188.085 Y188.345 E16.00553
G1 X187.206 Y188.676 E16.03677
G1 X186.302 Y188.927 E16.06797
G1 X185.375 Y189.098 E16.09932
G1 X184.239 Y189.194 E16.13724
G1 X183.598 Y189.208 E16.15857
G1 X116.626 Y189.206 E18.38606
G1 X115.912 Y189.195 E18.40982
G1 X114.975 Y189.139 E18.44104
G1 X114.047 Y189 E18.47225
G1 X113.134 Y188.779 E18.50349
G1 X112.245 Y188.478 E18.53471
G1 X111.386 Y188.1 E18.56592
G1 X110.565 Y187.648 E18.59709
G1 X109.814 Y187.146 E18.62714
G1 X109.055 Y186.534 E18.65957
G1 X108.381 Y185.881 E18.69078
G1 X107.767 Y185.172 E18.72197
G1 X107.217 Y184.411 E18.7532
G1 X106.755 Y183.635 E18.78324
G1 X106.332 Y182.758 E18.81563
G1 X106.003 Y181.88 E18.84681
G1 X105.752 Y180.975 E18.87805
G1 X105.581 Y180.047 E18.90943
G1 X105.485 Y178.882 E18.94831
G1 X105.472 Y178.265 E18.96884
G1 X105.473 Y177.033 E19.00981
G1 X105.49 Y175.883 E19.04807
G1 X105.49 Y173.268 E19.13504
G1 X105.474 Y172.394 E19.16412
G1 X105.475 Y128.029 E20.6397
G1 X105.49 Y126.957 E20.67536
G1 X105.49 Y124.34 E20.7624
G1 X105.474 Y123.495 E20.79051
G1 X105.473 Y121.924 E20.84276
G1 X105.484 Y121.228 E20.86592
G1 X105.54 Y120.29 E20.89717
G1 X105.68 Y119.363 E20.92835
G1 X105.901 Y118.45 E20.9596
G1 X106.19 Y117.594 E20.98964
G1 X106.58 Y116.702 E21.02202
G1 X107.015 Y115.91 E21.05208
G1 X107.557 Y115.102 E21.08444
G1 X108.148 Y114.372 E21.11568
G1 X108.801 Y113.698 E21.14689
G0 F6000 X109.063 Y114
G1 F1200 X109.745 Y113.408 E21.17693
G1 X110.477 Y112.879 E21.20697
G1 X111.252 Y112.417 E21.23698
G1 X112.066 Y112.025 E21.26703
G1 X112.911 Y111.706 E21.29707
G1 X113.781 Y111.464 E21.3271
G1 X114.669 Y111.299 E21.35714
G1 X115.795 Y111.205 E21.39472
G1 X116.402 Y111.192 E21.41492
G1 X183.368 Y111.194 E23.64222
G1 X184.065 Y111.204 E23.6654
G1 X184.967 Y111.257 E23.69545
G1 X185.86 Y111.389 E23.72548
G1 X186.738 Y111.6 E23.75551
G1 X187.594 Y111.888 E23.78555
G1 X188.422 Y112.251 E23.81562
G1 X189.213 Y112.685 E23.84563
G1 X189.964 Y113.187 E23.87567
G1 X190.667 Y113.754 E23.90571
G1 X191.317 Y114.381 E23.93575
G1 X191.909 Y115.063 E23.96579
G1 X192.439 Y115.794 E23.99582
G1 X192.901 Y116.57 E24.02586
G1 X193.294 Y117.383 E24.05589
G1 X193.612 Y118.228 E24.08592
G1 X193.855 Y119.098 E24.11596
G1 X194.02 Y119.986 E24.146
G1 X194.115 Y121.116 E24.18372
G1 X194.128 Y121.723 E24.20391
G1 X194.127 Y122.884 E24.24253
G1 X194.11 Y124.097 E24.28288
G1 X194.11 Y126.717 E24.37002
G1 X194.124 Y127.35 E24.39108
G1 X194.126 Y171.967 E25.87504
G1 X194.11 Y173.048 E25.911
G1 X194.11 Y175.657 E25.99778
G1 X194.124 Y176.29 E26.01884
G1 X194.128 Y177.857 E26.07096
G1 X194.117 Y178.739 E26.10029
G1 X194.065 Y179.641 E26.13034
G1 X193.933 Y180.534 E26.16037
G1 X193.722 Y181.413 E26.19043
G1 X193.435 Y182.269 E26.22046
G1 X193.073 Y183.096 E26.25049
G1 X192.639 Y183.888 E26.28053
G1 X192.137 Y184.639 E26.31057
G1 X191.571 Y185.342 E26.34059
G1 X190.944 Y185.993 E26.37065
G1 X190.263 Y186.585 E26.40066
G1 X189.532 Y187.115 E26.43069
G1 X188.756 Y187.578 E26.46075
G1 X187.943 Y187.971 E26.49078
G1 X187.098 Y188.291 E26.52084
G1 X186.229 Y188.534 E26.55085
G1 X185.341 Y188.699 E26.58089
G1 X184.205 Y188.795 E26.61881
G1 X183.598 Y188.808 E26.639
G1 X116.632 Y188.806 E28.8663
G1 X115.935 Y188.796 E28.88948
G1 X115.033 Y188.743 E28.91954
G1 X114.14 Y188.611 E28.94956
G1 X113.262 Y188.4 E28.97959
G1 X112.406 Y188.112 E29.00963
G1 X111.578 Y187.749 E29.0397
G1 X110.787 Y187.315 E29.06971
G1 X110.036 Y186.813 E29.09976
G1 X109.333 Y186.246 E29.12979
G1 X108.683 Y185.619 E29.15983
G1 X108.091 Y184.937 E29.18987
G1 X107.561 Y184.206 E29.2199
G1 X107.099 Y183.43 E29.24994
G1 X106.706 Y182.617 E29.27997
G1 X106.388 Y181.772 E29.31
G1 X106.145 Y180.902 E29.34005
G1 X105.98 Y180.014 E29.37009
G1 X105.885 Y178.873 E29.40817
G1 X105.872 Y178.265 E29.42839
G1 X105.873 Y177.039 E29.46917
G1 X105.89 Y175.889 E29.50742
G1 X105.89 Y173.268 E29.5946
G1 X105.874 Y172.394 E29.62367
G1 X105.875 Y128.035 E31.09906
G1 X105.89 Y126.963 E31.13472
G1 X105.89 Y124.34 E31.22196
G1 X105.874 Y123.495 E31.25007
G1 X105.873 Y121.93 E31.30212
G1 X105.883 Y121.251 E31.32471
G1 X105.936 Y120.349 E31.35476
G1 X106.069 Y119.456 E31.38479
G1 X106.28 Y118.578 E31.41482
G1 X106.569 Y117.722 E31.44487
G1 X106.931 Y116.895 E31.4749
G1 X107.366 Y116.103 E31.50495
G1 X107.868 Y115.353 E31.53497
G1 X108.436 Y114.65 E31.56503
G1 X109.063 Y114 E31.59507
G1 F1500 E25.09507
G0 F6000 X116.007 Y121.592
G0 X116.272 Y121.592
G1 F1500 E31.59507
G1 F1200 X183.728 Y121.593 E33.83866
G1 X183.728 Y123.319 E33.89607
G1 X183.528 Y123.319 E33.90272
G1 X183.528 Y122.193 E33.94017
G1 X183.489 Y122.074 E33.94434
G1 X183.328 Y121.993 E33.95033
G1 X116.672 Y121.993 E36.16732
G1 X116.553 Y122.032 E36.17148
G1 X116.472 Y122.193 E36.17748
G1 X116.472 Y123.319 E36.21493
G1 X116.272 Y123.319 E36.22158
G1 X116.272 Y121.592 E36.27902
G1 F1500 E29.77902
G0 F6000 X116.272 Y121.528
G0 X116.007 Y127.741
G0 X116.272 Y127.741
G1 F1500 E36.27902
G1 F1200 X116.472 Y127.741 E36.28567
G1 X116.472 Y127.992 E36.29402
G1 X116.511 Y128.111 E36.29819
G1 X116.672 Y128.192 E36.30418
G1 X183.328 Y128.192 E38.52117
G1 X183.447 Y128.153 E38.52533
G1 X183.528 Y127.992 E38.53133
G1 X183.528 Y127.742 E38.53964
G1 X183.728 Y127.742 E38.5463
G1 X183.728 Y128.157 E38.5601
G1 X183.68 Y128.173 E38.56178
G1 X183.602 Y128.302 E38.5668
G1 X183.523 Y128.789 E38.58321
G1 X183.52 Y128.829 E38.58454
G1 X183.536 Y129.228 E38.59782
G1 X183.543 Y129.271 E38.59927
G1 X183.63 Y129.6 E38.61059
G1 X183.698 Y129.705 E38.61475
G1 X183.728 Y129.716 E38.61581
G1 X183.728 Y170.274 E39.96478
G1 X183.68 Y170.29 E39.96646
G1 X183.602 Y170.419 E39.97147
G1 X183.523 Y170.906 E39.98788
G1 X183.52 Y170.946 E39.98922
G1 X183.537 Y171.347 E40.00257
G1 X183.543 Y171.389 E40.00398
G1 X183.627 Y171.717 E40.01524
G1 X183.694 Y171.822 E40.01938
G1 X183.728 Y171.834 E40.02058
G1 X183.728 Y172.259 E40.03472
G1 X183.528 Y172.259 E40.04137
G1 X183.528 Y172.008 E40.04972
G1 X183.489 Y171.889 E40.05388
G1 X183.328 Y171.808 E40.05988
G1 X116.672 Y171.808 E42.27686
G1 X116.553 Y171.847 E42.28103
G1 X116.472 Y172.008 E42.28702
G1 X116.472 Y172.258 E42.29534
G1 X116.272 Y172.258 E42.30199
G1 X116.272 Y171.843 E42.31579
G1 X116.32 Y171.827 E42.31748
G1 X116.398 Y171.699 E42.32246
G1 X116.477 Y171.223 E42.33851
G1 X116.48 Y171.182 E42.33988
G1 X116.464 Y170.78 E42.35326
G1 X116.458 Y170.738 E42.35467
G1 X116.372 Y170.402 E42.36621
G1 X116.305 Y170.297 E42.37035
G1 X116.272 Y170.285 E42.37152
G1 X116.272 Y129.726 E43.72051
G1 X116.32 Y129.71 E43.7222
G1 X116.398 Y129.581 E43.72721
G1 X116.477 Y129.094 E43.74362
G1 X116.48 Y129.054 E43.74495
G1 X116.463 Y128.653 E43.7583
G1 X116.457 Y128.611 E43.75971
G1 X116.373 Y128.283 E43.77098
G1 X116.306 Y128.178 E43.77512
G1 X116.272 Y128.166 E43.77632
G1 X116.272 Y127.741 E43.79045
G0 F6000 X116.856 Y128.592
G1 F1200 X183.15 Y128.592 E45.9954
G1 X183.128 Y128.725 E45.99988
G1 X183.12 Y128.845 E46.00388
G1 X183.136 Y129.244 E46.01717
G1 X183.156 Y129.373 E46.02151
G1 X183.243 Y129.702 E46.03283
G1 X183.328 Y129.883 E46.03948
G1 X183.328 Y170.095 E47.37693
G1 X183.265 Y170.177 E47.38037
G1 X183.207 Y170.355 E47.3866
G1 X183.128 Y170.842 E47.40301
G1 X183.121 Y170.963 E47.40704
G1 X183.138 Y171.364 E47.42039
G1 X183.144 Y171.408 E47.42187
G1 X116.852 Y171.408 E49.62675
G1 X116.872 Y171.288 E49.63079
G1 X116.88 Y171.166 E49.63486
G1 X116.864 Y170.764 E49.64824
G1 X116.845 Y170.639 E49.65245
G1 X116.759 Y170.303 E49.66398
G1 X116.672 Y170.114 E49.6709
G1 X116.672 Y129.905 E51.00826
G1 X116.735 Y129.823 E51.0117
G1 X116.793 Y129.645 E51.01793
G1 X116.872 Y129.158 E51.03433
G1 X116.879 Y129.037 E51.03837
G1 X116.862 Y128.636 E51.05172
G1 X116.856 Y128.592 E51.05319
G0 F6000 X117.278 Y128.992
G1 F1200 X182.726 Y128.992 E53.23
G1 X182.737 Y129.26 E53.23892
G1 X182.769 Y129.476 E53.24619
G1 X182.856 Y129.805 E53.2575
G1 X182.928 Y129.975 E53.26364
G1 X182.928 Y169.974 E54.59402
G1 X182.894 Y170.026 E54.59608
G1 X182.812 Y170.291 E54.60531
G1 X182.733 Y170.778 E54.62172
G1 X182.721 Y170.98 E54.62845
G1 X182.722 Y171.008 E54.62938
G1 X117.273 Y171.008 E56.80622
G1 X117.263 Y170.748 E56.81488
G1 X117.233 Y170.54 E56.82187
G1 X117.147 Y170.204 E56.8334
G1 X117.072 Y170.023 E56.83992
G1 X117.072 Y130.026 E58.17023
G1 X117.106 Y129.974 E58.17229
G1 X117.188 Y129.709 E58.18152
G1 X117.267 Y129.222 E58.19793
G1 X117.279 Y129.02 E58.20466
G1 X117.278 Y128.992 E58.20559
G0 F6000 X117.645 Y129.392
G1 F1200 X182.355 Y129.392 E60.35785
G1 X182.383 Y129.578 E60.36411
G1 X182.47 Y129.907 E60.37543
G1 X182.528 Y130.053 E60.38065
G1 X182.528 Y169.879 E61.70527
G1 X182.496 Y169.938 E61.7075
G1 X182.417 Y170.227 E61.71747
G1 X182.355 Y170.608 E61.73031
G1 X117.645 Y170.608 E63.88257
G1 X117.62 Y170.441 E63.88819
G1 X117.534 Y170.105 E63.89972
G1 X117.472 Y169.945 E63.90543
G1 X117.472 Y130.121 E65.22998
G1 X117.504 Y130.062 E65.23221
G1 X117.583 Y129.773 E65.24218
G1 X117.645 Y129.392 E65.25502
G0 F6000 X117.985 Y129.792
G1 F1200 X182.026 Y129.792 E67.38503
G1 X182.083 Y130.009 E67.39249
G1 X182.128 Y130.127 E67.39669
G1 X182.128 Y169.805 E68.71639
G1 X182.082 Y169.91 E68.7202
G1 X182.022 Y170.163 E68.72885
G1 X182.015 Y170.208 E68.73036
G1 X117.974 Y170.208 E70.86038
G1 X117.922 Y170.006 E70.86731
G1 X117.872 Y169.871 E70.8721
G1 X117.872 Y130.195 E72.19173
G1 X117.918 Y130.09 E72.19554
G1 X117.978 Y129.837 E72.20419
G1 X117.985 Y129.792 E72.20571
G0 F6000 X118.285 Y130.192
G1 F1200 X181.726 Y130.192 E74.31576
G1 X181.728 Y130.198 E74.31597
G1 X181.728 Y169.766 E75.63201
G1 X181.715 Y169.808 E75.63347
G1 X118.274 Y169.808 E77.74353
G1 X118.272 Y169.803 E77.74371
G1 X118.272 Y130.234 E79.05978
G1 X118.285 Y130.192 E79.06124
G0 F6000 X118.672 Y130.592
G1 F1200 X181.328 Y130.592 E81.14519
G1 X181.328 Y169.408 E82.43621
G1 X118.672 Y169.408 E84.52016
G1 X118.672 Y130.592 E85.81118
G0 F6000 X119.072 Y130.992
G1 F1200 X180.928 Y130.992 E87.86852
G1 X180.928 Y169.008 E89.13294
G1 X119.072 Y169.008 E91.19028
G1 X119.072 Y130.992 E92.4547
G0 F6000 X119.472 Y131.392
G1 F1200 X180.528 Y131.392 E94.48543
G1 X180.528 Y168.608 E95.72324
G1 X119.472 Y168.608 E97.75397
G1 X119.472 Y131.392 E98.99178
G0 F6000 X119.872 Y131.792
G1 F1200 X180.128 Y131.792 E100.9959
G1 X180.128 Y168.208 E102.2071
G1 X119.872 Y168.208 E104.21122
G1 X119.872 Y131.792 E105.42242
G1 F1500 E98.92242
G0 F6000 X119.407 Y131.792
G0 X116.019 Y171.355
G0 X116.007 Y176.681
G0 X116.472 Y176.681
G1 F1500 E105.42242
G1 F1200 X116.472 Y177.807 E105.45988
G1 X116.511 Y177.926 E105.46404
G1 X116.672 Y178.007 E105.47004
G1 X183.328 Y178.008 E107.68702
G1 X183.447 Y177.969 E107.69119
G1 X183.528 Y177.808 E107.69718
G1 X183.528 Y176.682 E107.73463
